X: 27608
T: Monymusk
R: reel
M: 4/4
K: Gmajor
ge|dG ~G2 eGce|dcBG AD D/D/D|dcBA Ggfg|ecAc BGge|
dG ~G2 eGce|dcBG AD D/D/D|dcBA Ggfg|adef ~g3 e|
dG ~G2 eGce|dcBG AD D/D/D|dcBA Ggfg|adef ~g3 e|
dG ~G2 eGce|dcBG AD D/D/D|dcBA Ggfg|ecAc BGGd||
|:~g3 d B/c/d ef|gfag fdef|~g3 d Bcdg|ecAc BGGd|
gffe eddB|cedB cBAG|FGAc Bcdg|1 fadf ~g3 d:|2 fadf ~g2||

